icons/laptop-block.svg

<svg width="24" height="24" viewBox="0 0 24 24" fill="none" xmlns="http://www.w3.org/2000/svg">
<path fill-rule="evenodd" clip-rule="evenodd" d="M4.34998 6.90002C4.34998 5.71423 5.31419 4.75 6.49997 4.75H17.5C18.6858 4.75 19.65 5.71424 19.65 6.90002V16.25H4.34998V6.90002ZM2.84998 16.3509V6.90002C2.84998 4.88582 4.48575 3.25 6.49997 3.25H17.5C19.5142 3.25 21.15 4.88581 21.15 6.90002V16.3509C22.0619 16.6393 22.75 17.5104 22.75 18.5C22.75 19.7142 21.7142 20.75 20.5 20.75H3.5C2.28579 20.75 1.25 19.7142 1.25 18.5C1.25 17.5104 1.93805 16.6393 2.84998 16.3509ZM3.5 17.75C3.11421 17.75 2.75 18.1142 2.75 18.5C2.75 18.8858 3.11421 19.25 3.5 19.25H20.5C20.8858 19.25 21.25 18.8858 21.25 18.5C21.25 18.1142 20.8858 17.75 20.5 17.75H3.5ZM12.8693 8.4699C12.0801 8.073 11.0548 8.20575 10.3302 8.93033L10.3187 8.94186L10.3067 8.95287C9.62046 9.58192 9.45839 10.6007 9.88474 11.4544L12.8693 8.4699ZM13.915 9.54548L10.9798 12.4807C11.8355 12.8456 12.8493 12.69 13.4696 12.0697L13.4811 12.0581L13.4931 12.0471C14.1794 11.418 14.3414 10.3992 13.915 9.54548ZM14.5417 7.88116C13.1343 6.35968 10.7576 6.39387 9.28107 7.85823C7.75563 9.26921 7.79396 11.6547 9.26958 13.1303L9.2811 13.1418L9.29311 13.1529C10.7627 14.4999 13.1123 14.5351 14.5186 13.1418C16.0402 11.7345 16.0061 9.35768 14.5417 7.88116Z" fill="black"/>
</svg>

<svg xmlns="http://www.w3.org/2000/svg" fill="none" viewBox="0 0 24 24">
  <path fill="#000" fill-rule="evenodd" d="M4.35 6.9c0-1.186.964-2.15 2.15-2.15h11c1.186 0 2.15.964 2.15 2.15v9.35H4.35V6.9Zm-1.5 9.45V6.9A3.652 3.652 0 0 1 6.5 3.25h11a3.652 3.652 0 0 1 3.65 3.65v9.45c.912.29 1.6 1.16 1.6 2.15 0 1.214-1.036 2.25-2.25 2.25h-17c-1.214 0-2.25-1.036-2.25-2.25 0-.99.688-1.86 1.6-2.15Zm.65 1.4c-.386 0-.75.364-.75.75s.364.75.75.75h17c.386 0 .75-.364.75-.75s-.364-.75-.75-.75h-17Zm9.37-9.28c-.79-.397-1.815-.264-2.54.46l-.011.012-.012.01c-.687.63-.849 1.649-.422 2.502l2.984-2.984Zm1.045 1.075-2.935 2.936c.855.365 1.87.209 2.49-.411l.011-.012.012-.01c.686-.63.848-1.649.422-2.503Zm.627-1.664c-1.408-1.521-3.784-1.487-5.26-.023-1.526 1.411-1.488 3.797-.012 5.272l.011.012.012.01c1.47 1.348 3.82 1.383 5.226-.01 1.521-1.407 1.487-3.784.023-5.26Z" clip-rule="evenodd"/>
</svg>
